X: 221
T: Bert Powter's First Set Tune
B: australian dance tunes
M:2/4
L:1/8
Q: 1/4=100
K:G
V:1 
DB, DE/2F/2|G>A G2|E>D EF/2G/2|AB AF/2E/2|DB, DE/2F/2|G>A BA|G>E DB|A2 G
B/2c/2||!
dB cA|BG GB/2c/2|dB cd|eA AB/2c/2|dB/2d/2|cA/2c/2|BG/2B/2 AF/2A/2|D2 EF|
AG G2||
% abcbook-tune_id 62a078502946adbf14e27eaf


% abcbook-boost 0
% abcbook-tablature 
% abcbook-transpose 
% abcbook-lastupdated 1654683750390
% abcbook-soundfonts 
% abcbook-repeats 1


